src/next/cmd/sc_tabledesign.svg

<svg height="16" viewBox="0 0 4.2333333 4.2333335" width="16" xmlns="http://www.w3.org/2000/svg" xmlns:xlink="http://www.w3.org/1999/xlink"><radialGradient id="a" cx="30.826572" cy="86.85881" gradientTransform="matrix(.97177617 0 0 .99360916 2.808391 -1.052321)" gradientUnits="userSpaceOnUse" r="48.221165"><stop offset="0" stop-color="#fff718"/><stop offset="1" stop-color="#e77100"/></radialGradient><linearGradient id="b" gradientUnits="userSpaceOnUse" x1="-6.953438" x2="66.845505" y1="100.30381" y2="77.467064"><stop offset="0" stop-color="#753919"/><stop offset="1" stop-color="#753919" stop-opacity="0"/></linearGradient><radialGradient id="c" cx="45.885448" cy="75.050514" gradientTransform="matrix(.97177617 0 0 .99360916 2.808391 -1.052321)" gradientUnits="userSpaceOnUse" r="48.221165" xlink:href="#d"/><linearGradient id="d"><stop offset="0" stop-color="#31170a"/><stop offset="1" stop-color="#542912" stop-opacity="0"/></linearGradient><linearGradient id="e" gradientUnits="userSpaceOnUse" x1="65.918159" x2="95.469009" y1="92.505585" y2="72.005585"><stop offset="0" stop-color="#382a23"/><stop offset="1" stop-color="#753919" stop-opacity="0"/></linearGradient><filter id="f" color-interpolation-filters="sRGB" height="1.116259" width="1.118972" x="-.059486" y="-.058129"><feGaussianBlur stdDeviation="2.3063507"/></filter><radialGradient id="g" cx="-3.114552" cy="128.35297" gradientTransform="matrix(.97177617 0 0 .99360916 2.808391 -1.052321)" gradientUnits="userSpaceOnUse" r="48.221165" xlink:href="#d"/><linearGradient id="h" gradientUnits="userSpaceOnUse" x1="9.610824" x2="2.222648" xlink:href="#i" y1="58.780281" y2="105.91142"/><linearGradient id="i" gradientUnits="userSpaceOnUse" x1="28" x2="28" y1="57.5" y2="0"><stop offset="0" stop-color="#ffea00"/><stop offset="1" stop-color="#fc0"/></linearGradient><linearGradient id="j" gradientUnits="userSpaceOnUse" x1="2.814214" x2="68.147888" y1="124.73762" y2="62.865772"><stop offset="0" stop-color="#ffeb4a"/><stop offset="1" stop-color="#ffeb4a" stop-opacity="0"/></linearGradient><filter id="k" color-interpolation-filters="sRGB" height="1.035563" width="1.036448" x="-.018224" y="-.017782"><feGaussianBlur stdDeviation=".66328126"/></filter><linearGradient id="l" gradientUnits="userSpaceOnUse" x1="11.554377" x2="72.751945" xlink:href="#i" y1="103.21913" y2="78.908989"/><linearGradient id="m" gradientUnits="userSpaceOnUse" x1="1.90311" x2="32.767338" y1="44.651196" y2="82.160851"><stop offset="0" stop-color="#fff"/><stop offset="1" stop-color="#fff" stop-opacity="0"/></linearGradient><linearGradient id="n" gradientUnits="userSpaceOnUse" x1="4.266055" x2="89.204308" y1="115.05597" y2="115.05597"><stop offset="0" stop-color="#ffea00"/><stop offset="1" stop-color="#dea200"/></linearGradient><linearGradient id="o" gradientUnits="userSpaceOnUse" x1="8" x2="8.408372" y1="29.000006" y2="-6.999998"><stop offset="0"/><stop offset="1" stop-color="#fff"/></linearGradient><linearGradient id="p" gradientTransform="matrix(.28494299 0 0 .34511728 .597009 263.04019)" gradientUnits="userSpaceOnUse" x1="46.048" x2="46.048" y1="128.01709" y2="16.6203"><stop offset="0" stop-color="#c7cdd7"/><stop offset="1" stop-color="#fff"/></linearGradient><g transform="matrix(.125 0 0 .125 0 -32.891665)"><path d="m2.116667 265.25h29.633333v27.64507h-29.633333z" fill="url(#p)"/><path d="m0 1v.5878906 2.4121094.5 2.5.5 2.5.5 3.013672.486328h1 4 1 4 1 4 1v-.486328-6.013672-.5-6h-15zm1 .5878906h4v2.4121094h-4zm5 0h4v2.4121094h-4zm5 0h4v2.4121094h-4zm-10 2.9121094h4v2.5h-4zm5 0h4v2.5h-4zm5 0h4v2.5h-4zm-10 3h4v2.5h-4zm5 0h4v2.5h-4zm5 0h4v2.5h-4zm-10 3h4v3.013672h-4zm5 0h4v3.013672h-4zm5 0h4v3.013672h-4z" fill="url(#o)" stroke-width=".472441" transform="matrix(2.1166667 0 0 2.1166667 0 263.13332)"/></g><g transform="matrix(.03307292 0 0 .03307292 -.024869 .036083)"><path d="m4.7443515 33.143064c-1.5261642.0048-3.99181946 1.243011-3.99240826 2.769183v86.996743c.0005934 1.52913 2.47086736 3.9994 3.99999996 4h84.8861668c2.450068-.00089 3.692983-4.17902 1.983411-5.93407l-84.8861672-86.996735c-.5234143-.536181-1.2417045-.837466-1.9910023-.835121zm12.0075915 37.765926 38.753574 36h-38.753574z" fill="url(#a)"/><path d="m4.7443515 33.143064c-1.5261642.0048-3.99181946.239754-3.99240826 1.765926v86.99674c.0005934 1.52913 2.47086736 5.00266 3.99999996 5.00326h84.8861668c2.450068-.00089 3.692983-4.17902 1.983411-5.93407l-84.8861672-86.996735c-.5234143-.536181-1.2417045-.837466-1.9910023-.835121zm12.0075915 37.765926 38.753574 36h-38.753574z" fill="url(#b)"/><path d="m4.7443515 33.143064c-1.5261642.0048-3.99181946 1.378604-3.99240826 2.904776v86.99674c.0005934 1.52913 2.47086736 3.86381 3.99999996 3.86441h84.8861668c2.450068-.00089 3.692983-4.17902 1.983411-5.93407l-84.8861672-86.996735c-.5234143-.536181-1.2417045-.837466-1.9910023-.835121zm12.0075915 37.765926 38.753574 36-38.897392.38467z" fill="url(#c)"/><path d="m3.7599545 30.894267c-1.5704891.0049-2.8411906 1.279112-2.84179695 2.849609v89.523444c.00061456 1.57354 1.27606815 2.849 2.84960945 2.84961h87.351562c2.521216-.00092 3.800225-3.03383 2.041016-4.83985l-87.3515624-89.523438c-.5386162-.551753-1.2777681-.861789-2.0488281-.859375zm11.3722945 39.373888 40.378015 36.386465-40.874838.148z" fill="url(#e)" filter="url(#f)" transform="matrix(.97177617 0 0 .97177617 2.808391 .715728)"/><path d="m4.7443515 33.143064c-1.5261642.0048-3.99181946 1.243011-3.99240826 2.769183v86.996743c.0005934 1.52913 2.47086736 3.9994 3.99999996 4h84.8861668c2.450068-.00089 3.692983-4.17902 1.983411-5.93407l-84.8861672-86.996735c-.5234143-.536181-1.2417045-.837466-1.9910023-.835121zm6.7123425 33.381251 49.012318 45.471675-49.108197.14382z" fill="url(#g)"/><path d="m4.7519435 36.608813v86.300177h.6624021l7.4487014-16h-.271414l.09588-33.010595c-2.9617673-5.421563-3.8847147-26.505795-7.9355695-37.289582z" fill="url(#h)" fill-rule="evenodd"/><path d="m2 36.21875v89.52344h87.351562zm8.232348 27.780825 50.988826 49.394095-51.153792-.00001z" fill="none" filter="url(#k)" stroke="url(#j)" stroke-width="2.058087" transform="matrix(.97177617 0 0 .97177617 2.808391 .715728)"/><path d="m4.7519435 35.912247v86.996743h2.2203575l.3301734-84zm7.9999995 23.751767v3.244976l49.549726 48h-49.549726v2.59523l56-.007z" fill="#fff"/><path d="m4.7519435 35.912247v86.996743h84.8861665zm7.9999995 26.996743 49.549726 48h-49.710036z" fill="url(#l)"/><g fill-rule="evenodd"><path d="m4.7519435 35.912247v55.153991l7.9999995-6.093288v-22.06396l16 13.939383 5.53569-9.939383z" fill="url(#m)"/><path d="m62.301669 110.90899h-1.549726-43.712381l-12.2876185 11.64318v.35682h84.2598265z" fill="url(#n)"/></g></g></svg>

<?xml version="1.0" encoding="UTF-8" standalone="no"?>
<svg
   xmlns:dc="http://purl.org/dc/elements/1.1/"
   xmlns:cc="http://creativecommons.org/ns#"
   xmlns:rdf="http://www.w3.org/1999/02/22-rdf-syntax-ns#"
   xmlns:svg="http://www.w3.org/2000/svg"
   xmlns="http://www.w3.org/2000/svg"
   xmlns:xlink="http://www.w3.org/1999/xlink"
   xmlns:sodipodi="http://sodipodi.sourceforge.net/DTD/sodipodi-0.dtd"
   xmlns:inkscape="http://www.inkscape.org/namespaces/inkscape"
   height="16"
   viewBox="0 0 4.2333333 4.2333335"
   width="16"
   version="1.1"
   id="svg46"
   sodipodi:docname="sc_tabledesign.svg"
   inkscape:version="0.92.3 (2405546, 2018-03-11)"
   inkscape:export-filename="/home/rizmut/Dokumen/Rizmut/Github/libreoffice-style-karasa-jaga/build/next/cmd/sc_tabledesign.png"
   inkscape:export-xdpi="96"
   inkscape:export-ydpi="96">
  <metadata
     id="metadata52">
    <rdf:RDF>
      <cc:Work
         rdf:about="">
        <dc:format>image/svg+xml</dc:format>
        <dc:type
           rdf:resource="http://purl.org/dc/dcmitype/StillImage" />
        <dc:title></dc:title>
      </cc:Work>
    </rdf:RDF>
  </metadata>
  <defs
     id="defs50">
    <radialGradient
       id="c-3"
       cx="30.826572"
       cy="86.85881"
       gradientTransform="matrix(0.97177617,0,0,0.99360916,2.808391,-1.052321)"
       gradientUnits="userSpaceOnUse"
       r="48.221165">
      <stop
         offset="0"
         stop-color="#fff718"
         id="stop1461" />
      <stop
         offset="1"
         stop-color="#e77100"
         id="stop1463" />
    </radialGradient>
    <linearGradient
       id="d-6"
       gradientUnits="userSpaceOnUse"
       x1="-6.9534378"
       x2="66.845505"
       y1="100.30381"
       y2="77.467064">
      <stop
         offset="0"
         stop-color="#753919"
         id="stop1466" />
      <stop
         offset="1"
         stop-color="#753919"
         stop-opacity="0"
         id="stop1468" />
    </linearGradient>
    <radialGradient
       id="e"
       cx="45.885448"
       cy="75.050514"
       gradientTransform="matrix(0.97177617,0,0,0.99360916,2.808391,-1.052321)"
       gradientUnits="userSpaceOnUse"
       r="48.221165"
       xlink:href="#f" />
    <linearGradient
       id="f">
      <stop
         offset="0"
         stop-color="#31170a"
         id="stop1472" />
      <stop
         offset="1"
         stop-color="#542912"
         stop-opacity="0"
         id="stop1474" />
    </linearGradient>
    <linearGradient
       id="a-7"
       gradientUnits="userSpaceOnUse"
       x1="65.918159"
       x2="95.469009"
       y1="92.505585"
       y2="72.005585">
      <stop
         offset="0"
         stop-color="#382a23"
         id="stop1453" />
      <stop
         offset="1"
         stop-color="#753919"
         stop-opacity="0"
         id="stop1455" />
    </linearGradient>
    <filter
       style="color-interpolation-filters:sRGB"
       id="b-5"
       height="1.116259"
       width="1.1189719"
       x="-0.059486002"
       y="-0.058129001">
      <feGaussianBlur
         stdDeviation="2.3063507"
         id="feGaussianBlur1458" />
    </filter>
    <radialGradient
       id="g"
       cx="-3.114552"
       cy="128.35297"
       gradientTransform="matrix(0.97177617,0,0,0.99360916,2.808391,-1.052321)"
       gradientUnits="userSpaceOnUse"
       r="48.221165"
       xlink:href="#f" />
    <linearGradient
       id="m"
       gradientUnits="userSpaceOnUse"
       x1="9.6108236"
       x2="2.2226479"
       xlink:href="#i"
       y1="58.780281"
       y2="105.91142" />
    <linearGradient
       id="i"
       gradientUnits="userSpaceOnUse"
       x1="28"
       x2="28"
       y1="57.5"
       y2="0">
      <stop
         offset="0"
         stop-color="#ffea00"
         id="stop1479" />
      <stop
         offset="1"
         stop-color="#fc0"
         id="stop1481" />
    </linearGradient>
    <linearGradient
       id="k"
       gradientUnits="userSpaceOnUse"
       x1="2.814214"
       x2="68.147888"
       y1="124.73762"
       y2="62.865772">
      <stop
         offset="0"
         stop-color="#ffeb4a"
         id="stop1489" />
      <stop
         offset="1"
         stop-color="#ffeb4a"
         stop-opacity="0"
         id="stop1491" />
    </linearGradient>
    <filter
       style="color-interpolation-filters:sRGB"
       id="l"
       height="1.035563"
       width="1.036448"
       x="-0.018224001"
       y="-0.017782001">
      <feGaussianBlur
         stdDeviation=".66328126"
         id="feGaussianBlur1494" />
    </filter>
    <linearGradient
       id="h"
       gradientUnits="userSpaceOnUse"
       x1="11.554377"
       x2="72.751945"
       xlink:href="#i"
       y1="103.21913"
       y2="78.908989" />
    <linearGradient
       id="n"
       gradientUnits="userSpaceOnUse"
       x1="1.90311"
       x2="32.767338"
       y1="44.651196"
       y2="82.160851">
      <stop
         offset="0"
         stop-color="#fff"
         id="stop1498" />
      <stop
         offset="1"
         stop-color="#fff"
         stop-opacity="0"
         id="stop1500" />
    </linearGradient>
    <linearGradient
       id="j"
       gradientUnits="userSpaceOnUse"
       x1="4.2660551"
       x2="89.204308"
       y1="115.05597"
       y2="115.05597">
      <stop
         offset="0"
         stop-color="#ffea00"
         id="stop1484" />
      <stop
         offset="1"
         stop-color="#dea200"
         id="stop1486" />
    </linearGradient>
  </defs>
  <sodipodi:namedview
     pagecolor="#ffffff"
     bordercolor="#666666"
     borderopacity="1"
     objecttolerance="10"
     gridtolerance="10"
     guidetolerance="10"
     inkscape:pageopacity="0"
     inkscape:pageshadow="2"
     inkscape:window-width="1366"
     inkscape:window-height="714"
     id="namedview48"
     showgrid="false"
     inkscape:zoom="14.75"
     inkscape:cx="-0.71482865"
     inkscape:cy="8.058295"
     inkscape:window-x="0"
     inkscape:window-y="28"
     inkscape:window-maximized="1"
     inkscape:current-layer="svg46" />
  <linearGradient
     id="a"
     gradientUnits="userSpaceOnUse"
     x1="8"
     x2="8.408372"
     y1="29.000006"
     y2="-6.999998">
    <stop
       offset="0"
       id="stop2" />
    <stop
       offset="1"
       stop-color="#fff"
       id="stop4" />
  </linearGradient>
  <linearGradient
     id="b"
     gradientTransform="matrix(.28494299 0 0 .34511728 .597009 263.04019)"
     gradientUnits="userSpaceOnUse"
     x1="46.048"
     x2="46.048"
     y1="128.01709"
     y2="16.6203">
    <stop
       offset="0"
       stop-color="#c7cdd7"
       id="stop7" />
    <stop
       offset="1"
       stop-color="#fff"
       id="stop9" />
  </linearGradient>
  <linearGradient
     id="c"
     gradientUnits="userSpaceOnUse"
     x1="2.057878"
     x2="2.057878"
     y1="13.492978"
     y2="1.429283">
    <stop
       offset="0"
       stop-color="#0c69ed"
       stop-opacity="0"
       id="stop12" />
    <stop
       offset=".25000003"
       stop-color="#1b77ef"
       id="stop14" />
    <stop
       offset=".5"
       stop-color="#4aa3f6"
       id="stop16" />
    <stop
       offset="1"
       stop-color="#89ddff"
       id="stop18" />
  </linearGradient>
  <linearGradient
     id="d"
     gradientTransform="matrix(0 -.48187302 -.48187302 0 43.041256 303.61513)"
     gradientUnits="userSpaceOnUse"
     x1="74.667397"
     x2="74.667397"
     y1="80.639534"
     y2="18.585112">
    <stop
       offset="0"
       stop-color="#0c69ed"
       stop-opacity="0"
       id="stop21" />
    <stop
       offset=".14999999"
       stop-color="#1b77ef"
       id="stop23" />
    <stop
       offset=".5"
       stop-color="#4aa3f6"
       id="stop25" />
    <stop
       offset="1"
       stop-color="#89ddff"
       id="stop27" />
  </linearGradient>
  <g
     transform="matrix(.125 0 0 .125 0 -32.891665)"
     id="g44">
    <path
       d="m2.116667 265.25h29.633333v27.64507h-29.633333z"
       fill="url(#b)"
       id="path30" />
    <path
       d="m0 1v.5878906 2.4121094.5 2.5.5 2.5.5 3.013672.486328h1 4 1 4 1 4 1v-.486328-6.013672-.5-6h-15zm1 .5878906h4v2.4121094h-4zm5 0h4v2.4121094h-4zm5 0h4v2.4121094h-4zm-10 2.9121094h4v2.5h-4zm5 0h4v2.5h-4zm5 0h4v2.5h-4zm-10 3h4v2.5h-4zm5 0h4v2.5h-4zm5 0h4v2.5h-4zm-10 3h4v3.013672h-4zm5 0h4v3.013672h-4zm5 0h4v3.013672h-4z"
       fill="url(#a)"
       stroke-width=".472441"
       transform="matrix(2.1166667 0 0 2.1166667 0 263.13332)"
       id="path32" />
  </g>
  <g
     transform="matrix(0.03307292,0,0,0.03307292,-0.02486881,0.03608287)"
     id="g1622">
    <path
       style="fill:url(#c-3)"
       inkscape:connector-curvature="0"
       d="m 4.7443515,33.143064 c -1.5261642,0.0048 -3.99181946,1.243011 -3.99240826,2.769183 v 86.996743 c 5.934e-4,1.52913 2.47086736,3.9994 3.99999996,4 H 89.63811 c 2.450068,-8.9e-4 3.692983,-4.17902 1.983411,-5.93407 L 6.7353538,33.978185 C 6.2119395,33.442004 5.4936493,33.140719 4.7443515,33.143064 Z m 12.0075915,37.765926 38.753574,36 H 16.751943 Z"
       id="path1598" />
    <path
       style="fill:url(#d-6)"
       inkscape:connector-curvature="0"
       d="m 4.7443515,33.143064 c -1.5261642,0.0048 -3.99181946,0.239754 -3.99240826,1.765926 v 86.99674 c 5.934e-4,1.52913 2.47086736,5.00266 3.99999996,5.00326 H 89.63811 c 2.450068,-8.9e-4 3.692983,-4.17902 1.983411,-5.93407 L 6.7353538,33.978185 C 6.2119395,33.442004 5.4936493,33.140719 4.7443515,33.143064 Z m 12.0075915,37.765926 38.753574,36 H 16.751943 Z"
       id="path1600" />
    <path
       style="fill:url(#e)"
       inkscape:connector-curvature="0"
       d="m 4.7443515,33.143064 c -1.5261642,0.0048 -3.99181946,1.378604 -3.99240826,2.904776 v 86.99674 c 5.934e-4,1.52913 2.47086736,3.86381 3.99999996,3.86441 H 89.63811 c 2.450068,-8.9e-4 3.692983,-4.17902 1.983411,-5.93407 L 6.7353538,33.978185 C 6.2119395,33.442004 5.4936493,33.140719 4.7443515,33.143064 Z m 12.0075915,37.765926 38.753574,36 -38.897392,0.38467 z"
       id="path1602" />
    <path
       style="fill:url(#a-7);filter:url(#b-5)"
       inkscape:connector-curvature="0"
       d="m 3.7599545,30.894267 c -1.5704891,0.0049 -2.8411906,1.279112 -2.84179695,2.849609 v 89.523444 c 6.1456e-4,1.57354 1.27606815,2.849 2.84960945,2.84961 h 87.351562 c 2.521216,-9.2e-4 3.800225,-3.03383 2.041016,-4.83985 L 5.8087826,31.753642 C 5.2701664,31.201889 4.5310145,30.891853 3.7599545,30.894267 Z m 11.3722945,39.373888 40.378015,36.386465 -40.874838,0.148 z"
       transform="matrix(0.97177617,0,0,0.97177617,2.808391,0.715728)"
       id="path1604" />
    <path
       style="fill:url(#g)"
       inkscape:connector-curvature="0"
       d="m 4.7443515,33.143064 c -1.5261642,0.0048 -3.99181946,1.243011 -3.99240826,2.769183 v 86.996743 c 5.934e-4,1.52913 2.47086736,3.9994 3.99999996,4 H 89.63811 c 2.450068,-8.9e-4 3.692983,-4.17902 1.983411,-5.93407 L 6.7353538,33.978185 C 6.2119395,33.442004 5.4936493,33.140719 4.7443515,33.143064 Z m 6.7123425,33.381251 49.012318,45.471675 -49.108197,0.14382 z"
       id="path1606" />
    <path
       style="fill:url(#m);fill-rule:evenodd"
       inkscape:connector-curvature="0"
       d="m 4.7519435,36.608813 v 86.300177 h 0.6624021 l 7.4487014,-16 h -0.271414 l 0.09588,-33.010595 C 9.7257457,68.476832 8.8027983,47.3926 4.7519435,36.608813 Z"
       id="path1608" />
    <path
       style="fill:none;stroke:url(#k);stroke-width:2.05808711;filter:url(#l)"
       inkscape:connector-curvature="0"
       d="m 2,36.21875 v 89.52344 h 87.351562 z m 8.232348,27.780825 50.988826,49.394095 -51.153792,-1e-5 z"
       transform="matrix(0.97177617,0,0,0.97177617,2.808391,0.715728)"
       id="path1610" />
    <path
       style="fill:#ffffff"
       inkscape:connector-curvature="0"
       d="M 4.7519435,35.912247 V 122.90899 H 6.972301 l 0.3301734,-84 z m 7.9999995,23.751767 v 3.244976 l 49.549726,48 H 12.751943 v 2.59523 l 56,-0.007 z"
       id="path1612" />
    <path
       style="fill:url(#h)"
       inkscape:connector-curvature="0"
       d="M 4.7519435,35.912247 V 122.90899 H 89.63811 Z m 7.9999995,26.996743 49.549726,48 H 12.591633 Z"
       id="path1614" />
    <g
       style="fill-rule:evenodd"
       id="g1620">
      <path
         style="fill:url(#n)"
         inkscape:connector-curvature="0"
         d="M 4.7519435,35.912247 V 91.066238 L 12.751943,84.97295 V 62.90899 l 16,13.939383 5.53569,-9.939383 z"
         id="path1616" />
      <path
         style="fill:url(#j)"
         inkscape:connector-curvature="0"
         d="M 62.301669,110.90899 H 60.751943 17.039562 L 4.7519435,122.55217 v 0.35682 H 89.01177 Z"
         id="path1618" />
    </g>
  </g>
</svg>
